img/rectangle-168-7.svg

<svg fill="none" height="81" viewBox="0 0 298 81" width="298" xmlns="http://www.w3.org/2000/svg"><path d="m.71967 4.99545c-1.197507-1.99962.242995-4.541348 2.57376-4.541348h269.05157c1.055 0 2.032.553818 2.574 1.458658l22.158 37.00004c.568.9489.568 2.1337 0 3.0826l-22.158 37c-.542.9049-1.519 1.4587-2.574 1.4587h-269.05157c-2.33077 0-3.771266-2.5417-2.573759-4.5413l20.312029-33.9174c.5683-.9489.5683-2.1337 0-3.0826z" fill="#56ccf2"/></svg>

<svg width="298" height="81" viewBox="0 0 298 81" fill="none" xmlns="http://www.w3.org/2000/svg">
<path d="M0.71967 4.99545C-0.477837 2.99583 0.962665 0.454102 3.29343 0.454102H272.345C273.4 0.454102 274.377 1.00792 274.919 1.91276L297.077 38.9128C297.645 39.8617 297.645 41.0465 297.077 41.9954L274.919 78.9954C274.377 79.9003 273.4 80.4541 272.345 80.4541H3.29343C0.96266 80.4541 -0.477836 77.9124 0.719671 75.9128L21.0317 41.9954C21.6 41.0465 21.6 39.8617 21.0317 38.9128L0.71967 4.99545Z" fill="#56CCF2"/>
</svg>
